!!!OTL: Ringeltanz
!!!ARE: Europa, Mitteleuropa, Deutschland
!!!SCT: A0284
!!!YEM: Copyright 1995, estate of Helmut Schaffrath.
**kern
*ICvox
*Ivox
*M3/2
*k[f#]
*G:
{2g
=1
1dd
2ffn
=2
1ee
2dd
=3
2cc
2a
2b
=4
1g}
{2g
=5
1dd
2ffn
=6
1ee
2dd
=7
2cc
2a
2b
=8
1g}
{2g
=9
2.a
4b
2cc
=10
1dd
2dd
=11
1cc
2a
=12
1g
2g
=13
2.d
4e
2f#
=14
1g}
{2g
=15
2.a
4b
2cc
=16
1dd
2dd
=17
1cc
2a
=18
1g
2g
=19
2.d
4e
2f#
=20
1g}
==
!!!AGN: Romanze, Ballade, Lied
!! Geistliche Ringeltentze 1550 "Der 23. Psalm..."
!!!ONB: ESAC (Essen Associative Code) Database: ALTDEU
!!!AMT: simple triple
!!!AIN: vox
!!!EED: Helmut Schaffrath
!!!EEV: 1.0
*-
